X:1
T:Yes, I Know!
T:Anna W. Waterman, 1920
T:Yes, I Know!
T:Public Domain
T:Public Domain
T:Public Domain
C:Anna W. Waterman, 1920
Z:Public Domain
%%score ( 1 2 ) 3
L:1/8
M:4/4
K:Ab
V:1 treble 
V:2 treble 
V:3 bass 
V:1
 E>A | (z2 E>E [Ec]>)[CA] [Fd]>[Fd] | E>E E>E (C>C) A>c | (z2 G>G [Ge]>)[Fd] [Ec]>[DB] | %4
w: 1.~Come, ye|* * * sin- ners, lost|* * * * * * hope- less,|* * * blood can make|
w: 2.~To the|* * * faint He giv-|* * * * * * pow- er,|* * * moun- tains makes|
w: 3.~In temp-|* * * ta- tion He|* * * * * * near thee,|* * * pow’rs of hell|
w: 4.~He will|* * * keep thee while|* * * * * * ag- es|* * * out e- ter-|
 E>A G>F [Ec]2 E>A | (z2 E>E [Ec]>)[CA] [Fd]>[Fd] | (E>E E>E) (C>C) A>c | %7
w: * * * * * free; For|* * * saved the worst|mong * * * * * you, When|
w: * * * * * way; Find-|* * * wa- ter in|des- * * * * * ert, Turns|
w: * * * * * bay; Guides|* * * to the path|safe- * * * * * ty, Gives|
w: * * * * * ty; Though|* * * hin- ders and|rag- * * * * * es, All|
 (z2 G>G [Ge]>)[Fd] [Ec]>[DB] | C>C D>D [CA]2 |:"^Refrain" [Ac][ce] | ([ce]B G>G [Gd]2) [Fd]>[Fd] | %11
w: * * * a wretch like||||
w: * * * to gold- en||* I|know, * * * * yes, I|
w: * * * for ev- ’ry||||
w: * * * for good to||||
 ([Fd]E E>E FE) [Ec]>[Ec] | [Ec]>[DB] [DB]>[Ec] [Fd]>[Fd] [Ec]<[DB] | (E>A G<F [Ec]2) :| %14
w: |||
w: Je- * * * * * sus’ blood|make the vil- est sin- ner clean, clean||
w: |||
w: |||
 (C>C D<D [CA]2) |] %15
w: |
w: |
w: |
w: |
V:2
 x2 | c4- x4 | c4 A2 x2 | e4- x4 | c4- x4 | c4- x4 | c4 A2 x2 | e4- x4 | A4- x2 |: x2 | x d3- x4 | %11
w: |and|Je- sus’|you|He|a-|He saved|me.||||
w: |eth|Through the|a|eth|the|the night|day.|And||know|
w: |is|Holds the|at|you|of|you grace|day.||||
w: |the|Roll through-|ni-|earth|hell|must work|thee.||||
 x c3- c2 x2 | x8 | c4- x2 :| A4- x2 |] %15
w: ||||
w: can *||||
w: ||||
w: ||||
V:3
 z2 | z2 ([A,,A,]>[A,,A,] [A,,A,]>)[A,,A,] [A,,A,]>[A,,A,] | %2
 ([A,,A,]>[A,,A,] [A,,A,]>[A,,A,]) [A,,E,]>[A,,E,] z2 | %3
 ([E,B,]>[E,B,] [E,B,]>[E,B,] [E,B,]>)[E,B,] [E,A,]>[E,G,] | %4
 ([A,,A,]>[A,,A,] [A,,A,]>[A,,A,] [A,,A,]2) z2 | %5
 z2 ([A,,A,]>[A,,A,] [A,,A,]>)[A,,A,] [A,,A,]>[A,,A,] | %6
 ([A,,A,]>[A,,A,] [A,,A,]>[A,,A,]) ([A,,E,]>[A,,E,]) z2 | %7
 z2 ([E,B,]>[E,B,] [E,B,]>)[E,B,] [E,A,]>[E,G,] | ([A,,E,]>[A,,E,] [B,,F,]>[B,,F,] [A,,E,]2) |: %9
 z2 | z ([E,E] [E,E]>[E,E] [E,B,]2) z2 | z ([A,,A,] [A,,A,]>[A,,A,] [A,,A,]2) [E,A,]>[E,A,] | %12
 [E,A,]>[E,G,] [E,G,]>[E,A,] [E,B,]>[E,B,] [E,A,]<[E,G,] | %13
 ([A,,A,]>[A,,A,] [A,,A,]>[A,,A,] [A,,A,]2) :| ([A,,E,]>[A,,E,] [A,,F,]<[A,,F,] [A,,E,]2) |] %15

